build/category/ChatOutline.svg

<svg xmlns="http://www.w3.org/2000/svg" fill="none" viewBox="0 0 24 24" focusable="false"><path d="M0 0H24V24H0z"/><path fill="#74767B" fill-rule="evenodd" d="M4 8C4 6.34315 5.34315 5 7 5L17 5C18.6569 5 20 6.34315 20 8L20 14C20 15.6569 18.6569 17 17 17L9.52219 17L6.1121 19.7281C5.26091 20.409 4 19.803 4 18.7129L4 8ZM5.3 18.7129L9.06618 15.7L17 15.7C17.9389 15.7 18.7 14.9389 18.7 14L18.7 8C18.7 7.06112 17.9389 6.3 17 6.3L7 6.3C6.06112 6.3 5.3 7.06112 5.3 8L5.3 18.7129ZM9.5 11C9.5 10.4477 9.05228 10 8.5 10C7.94772 10 7.5 10.4477 7.5 11C7.5 11.5523 7.94772 12 8.5 12C9.05228 12 9.5 11.5523 9.5 11ZM12 10C12.5523 10 13 10.4477 13 11C13 11.5523 12.5523 12 12 12C11.4477 12 11 11.5523 11 11C11 10.4477 11.4477 10 12 10ZM16.5 11C16.5 10.4477 16.0523 10 15.5 10C14.9477 10 14.5 10.4477 14.5 11C14.5 11.5523 14.9477 12 15.5 12C16.0523 12 16.5 11.5523 16.5 11Z"/></svg>

<svg xmlns="http://www.w3.org/2000/svg" fill="none" viewBox="0 0 24 24" focusable="false"><path fill="#74767B" fill-rule="evenodd" d="M4 8c0-1.66 1.34-3 3-3h10c1.65 0 3 1.34 3 3v6c0 1.65-1.35 3-3 3H9.52l-3.41 2.72C5.26 20.4 4 19.8 4 18.71zm1.29 10.71 3.77-3.01H17c.93 0 1.7-.77 1.7-1.7V8c0-.94-.77-1.7-1.7-1.7H7c-.94 0-1.71.76-1.71 1.7zM9.5 11c0-.56-.45-1-1-1-.56 0-1 .44-1 1 0 .55.44 1 1 1 .55 0 1-.45 1-1m2.5-1c.55 0 1 .44 1 1 0 .55-.45 1-1 1-.56 0-1-.45-1-1 0-.56.44-1 1-1m4.5 1c0-.56-.45-1-1-1-.56 0-1 .44-1 1 0 .55.44 1 1 1 .55 0 1-.45 1-1"/></svg>
